icons/4_Outdated/Avast v1.svg

<svg width="1024" height="1024" viewBox="0 0 1024 1024" fill="none" xmlns="http://www.w3.org/2000/svg">
<g clip-path="url(#clip0_3_755)">
<path d="M512 1024C794.77 1024 1024 794.77 1024 512C1024 229.23 794.77 0 512 0C229.23 0 0 229.23 0 512C0 794.77 229.23 1024 512 1024Z" fill="#F8C18C"/>
<path d="M669.73 256C663.827 255.861 657.926 256.334 652.12 257.41C637.07 260.17 624.45 266.41 611.65 277.76C598.54 289.45 595.2 301.45 580.18 316.13C556.49 339.3 528.18 350.65 494.52 348.37C478.04 347.25 464.15 343.37 447.6 334.02C429.78 324.02 422.86 311.97 409.14 308.83C394.88 305.59 379.04 309.55 369.55 320.45C356.55 335.31 358.29 349.14 363.92 366.93C369.24 383.73 373.81 400.02 374.67 417.78C375.557 435.27 373.481 452.783 368.53 469.58C359.45 500.21 337.07 528.95 315.63 547.89C298 563.53 285.48 566 274.15 577C268.462 582.346 263.92 588.791 260.8 595.946C257.68 603.101 256.047 610.815 256 618.62C255.989 632.234 260.739 645.423 269.429 655.902C278.118 666.381 290.2 673.491 303.58 676C324.77 679.92 344.98 670.28 351.29 668.3C395.29 654.47 450.53 656.17 490.46 667.79C523.46 677.4 552.03 694.43 578.68 715.97C591.48 726.33 601.2 740.27 614.68 749.88C649.32 774.59 709.14 779.36 747.43 730.11C773.3 696.74 779.54 639.19 737.91 600.11C721.19 584.4 710.1 582.19 696.55 572.27C655.05 541.91 645.05 478.27 676.89 436.84C686 424.98 697.33 416.64 710.1 408.19C723.34 399.4 735.42 386.65 741.7 373.4C754.26 346.79 751.29 313.15 731.77 288C716.69 268.59 694.6 256.72 669.77 256.09L669.73 256ZM573.35 420.16C580.96 420.16 590.66 426.42 590.66 437.74V571.12C590.66 578 585.47 588.67 573.18 588.67C568.579 588.759 564.13 587.019 560.81 583.832C557.49 580.645 555.57 576.271 555.47 571.67V556.94C544.18 572.51 525.92 586.87 499.58 586.87C479.48 586.87 462.357 578.76 448.21 562.54C434.063 546.32 426.993 526.88 427 504.22C427 481.387 434.073 461.907 448.22 445.78C462.367 429.654 479.49 421.59 499.59 421.59C524.16 421.59 542.17 433.48 555.48 451.37V437.7C555.48 430.34 560.48 420.15 573.37 420.15L573.35 420.16ZM509.22 453C482.88 453 462.95 475.86 462.95 503.74C462.95 530.12 482.33 554.62 509.22 554.62C536.45 554.62 555.5 530.52 555.5 503.74C555.5 478.42 537.62 453 509.22 453Z" fill="white"/>
</g>
<defs>
<clipPath id="clip0_3_755">
<rect width="1024" height="1024" fill="white"/>
</clipPath>
</defs>
</svg>

<svg width="1024" height="1024" fill="none" xmlns="http://www.w3.org/2000/svg"><g clip-path="url(#a)"><path d="M512 1024c282.77 0 512-229.23 512-512S794.77 0 512 0 0 229.23 0 512s229.23 512 512 512Z" fill="#F8C18C"/><path d="M669.73 256a85.581 85.581 0 0 0-17.61 1.41c-15.05 2.76-27.67 9-40.47 20.35-13.11 11.69-16.45 23.69-31.47 38.37-23.69 23.17-52 34.52-85.66 32.24-16.48-1.12-30.37-5-46.92-14.35-17.82-10-24.74-22.05-38.46-25.19-14.26-3.24-30.1.72-39.59 11.62-13 14.86-11.26 28.69-5.63 46.48 5.32 16.8 9.89 33.09 10.75 50.85a155.377 155.377 0 0 1-6.14 51.8c-9.08 30.63-31.46 59.37-52.9 78.31C298 563.53 285.48 566 274.15 577A57.592 57.592 0 0 0 256 618.62 58.33 58.33 0 0 0 303.58 676c21.19 3.92 41.4-5.72 47.71-7.7 44-13.83 99.24-12.13 139.17-.51 33 9.61 61.57 26.64 88.22 48.18 12.8 10.36 22.52 24.3 36 33.91 34.64 24.71 94.46 29.48 132.75-19.77 25.87-33.37 32.11-90.92-9.52-130-16.72-15.71-27.81-17.92-41.36-27.84-41.5-30.36-51.5-94-19.66-135.43 9.11-11.86 20.44-20.2 33.21-28.65 13.24-8.79 25.32-21.54 31.6-34.79 12.56-26.61 9.59-60.25-9.93-85.4-15.08-19.41-37.17-31.28-62-31.91l-.04-.09Zm-96.38 164.16c7.61 0 17.31 6.26 17.31 17.58v133.38c0 6.88-5.19 17.55-17.48 17.55a17.378 17.378 0 0 1-17.71-17v-14.73c-11.29 15.57-29.55 29.93-55.89 29.93-20.1 0-37.223-8.11-51.37-24.33-14.147-16.22-21.217-35.66-21.21-58.32 0-22.833 7.073-42.313 21.22-58.44 14.147-16.126 31.27-24.19 51.37-24.19 24.57 0 42.58 11.89 55.89 29.78V437.7c0-7.36 5-17.55 17.89-17.55l-.02.01ZM509.22 453c-26.34 0-46.27 22.86-46.27 50.74 0 26.38 19.38 50.88 46.27 50.88 27.23 0 46.28-24.1 46.28-50.88 0-25.32-17.88-50.74-46.28-50.74Z" fill="#fff"/></g><defs><clipPath id="a"><path fill="#fff" d="M0 0h1024v1024H0z"/></clipPath></defs></svg>
